!!!OTL: Es fliegen zwei Tauben wohl ueber den Rhein, Sie kommen den ganzen Sommer nicht heim
!!!ARE: Europa, Mitteleuropa, Lothringen, Weiler
!!!SCT: D0035
!!!YEM: Copyright 1995, estate of Helmut Schaffrath.
**kern
*ICvox
*Ivox
*M3/4
*k[f#]
*G:
{4g
=1
4dd
4dd
4cc
=2
4dd
4dd
4cc
=3
4dd
4dd
4cc
=4
[2.dd
=5
4dd]
4r}
{4dd
=6
4.g
8a
4b-
=7
4cc
4b-
4a
=8
4g
4g
4f#
=9
[2.g
=10
4g]
4r}
{4d
=11
4g
4g
4a
=12
4g
4g
4d
=13
4ffn
4g
4ffn
=14
[2.d
=15
4d]
4r}
{4g
=16
4dd
4dd
4cc
=17
4dd
4dd
4cc
=18
4dd
4dd
4cc
=19
[2.dd
=20
4dd]
4r}
{4dd
=21
4.g
8a
4b-
=22
4cc
4b-
4a
=23
4g
4g
4f#
=24
[2.g
=25
4g]
4r}
==
!!!AGN: Liebes - Lied
!! Inzipit = Variante zum Lied, beides Varianten zu Lied D0032
!!!ONB: ESAC (Essen Associative Code) Database: DVA
!!!AMT: simple triple
!!!AIN: vox
!!!EED: Helmut Schaffrath
!!!EEV: 1.0
*-
